X: 31507
T: Paddy's
R: polka
M: 2/4
K: Edorian
|:BE ED/E/|FD FA|BE ED/E/|FE D2|
BE ED/E/|FD FA|B>c BA|FE e2:|
|:Be ed/e/|fe dA|Be ed/e/|fe d2|
Be ed/e/|fe dA|B>c BA|FE e2:|

